!!!!SEGMENT: pl-kk--kk-i-7--058-004_palestrina-giovanni-pierluigi-da-missa-inviolata-agnus-dei.krn
!!!id: 16xx:897
!!!COM: Palestrina, Giovanni Pierluigi da
!!!OTL: Missa Inviolata – Agnus Dei
!!!PDT:
!!!SMS-siglum: PL-Kk
!!!SMS-shelfmark: Kk.I.7
!!!NIFC-rismID: 300258135
!!!URL-scan: http://repozytorium.nifc.pl/skany/pl-kk-nut--i-7
!!!ONB-nifc: UWAGA: C (skan 0058, s.108), A (0142, s.104-105), T (0219, s.100), B (0305, s.97). Części Mszy: 1. Kyrie, 2. Et in terra, 3. Sanctus, 4. Agnus Dei
!!!SMS-variant:
!!!SMS-altvar:
**kern	**text	**kern	**text	**kern	**text	**kern	**text
*part4	*part4	*part3	*part3	*part2	*part2	*part1	*part1
*staff4	*staff4	*staff3	*staff3	*staff2	*staff2	*staff1	*staff1
*I"BASSVS.	*	*I"TENOR.	*	*I"ALTVS.	*	*I"CANTVS.	*
*I'B	*	*I'T	*	*I'A	*	*I'S	*
*clefF4	*	*clefC4	*	*clefC3	*	*clefC1	*
*k[b-]	*	*k[b-]	*	*k[b-]	*	*k[b-]	*
*F:	*	*F:	*	*F:	*	*F:	*
*M2/1	*	*M2/1	*	*M2/1	*	*M2/1	*
*met(C|)	*	*met(C|)	*	*met(C|)	*	*met(C|)	*
*>[A,B,A]	*	*>[A,B,A]	*	*>[A,B,A]	*	*>[A,B,A]	*
=1-	=1-	=1-	=1-	=1-	=1-	=1-	=1-
*>A	*	*>A	*	*>A	*	*>A	*
!LO:TX:a:t=P:problem:znaki BB- B-	!	!	!	!	!	!LO:TX:t=P:problem:inicjał A przed kluczem	!
!LO:TX:t=P:problem:kreska pseudotaktowa	!	!	!	!	!	!	!
00r	.	00r	.	1rc	.	1.f	A-
!	!	!	!	!LO:TX:t=P:problem:inicjał A przed kluczem	!	!	!
.	.	.	.	1.B-	A-	.	.
!	!	!	!	!	!	!LO:TX:t=P:problem:kreska pseudotaktowa	!
.	.	.	.	.	.	2f/	-gnus
=2-	=2-	=2-	=2-	=2-	=2-	=2-	=2-
*	*	*	*	*	*	*lig	*
.	.	.	.	.	.	1f	De-
!	!	!	!	!LO:TX:t=P:problem:kreska pseudotaktowa	!	!	!
.	.	.	.	2B-/	-gnus	.	.
*	*	*	*	*lig	*ij	*	*
.	.	.	.	1B-	A-	1g	.
*	*	*	*	*	*	*Xlig	*
=3-	=3-	=3-	=3-	=3-	=3-	=3-	=3-
!LO:TX:t=P:problem:inicjał A przed kluczem	!	!LO:TX:t=P:problem:kreska pseudotaktowa	!	!	!	!LO:TX:t=P:problem:kreska pseudotaktowa	!
1.F	A-	00r	.	1c	.	1a	-i
*	*	*	*	*Xlig	*	*	*
*2\right	*	*	*	*2\right	*	*	*
.	.	.	.	2d\	.	2.f/	A-
!LO:TX:t=P:problem:kreska pseudotaktowa	!	!	!	!	!	!	!
2F\	-gnus	.	.	2c,\	-gnus	.	.
*	*	*	*	*	*Xij	*	*
.	.	.	.	.	.	4g/	.
=4-	=4-	=4-	=4-	=4-	=4-	=4-	=4-
*lig	*ij	*	*	*	*	*	*
1F	A-	.	.	2.f\	De-	4a\	.
.	.	.	.	.	.	4b-\	.
.	.	.	.	.	.	1cc\	.
.	.	.	.	4e\	.	.	.
1G	.	.	.	1d	.	.	.
*	*	*	*	*	*	*2\right	*
!	!	!	!	!	!	!LO:TX:t=P:problem:kreska pseudotaktowa	!
.	.	.	.	.	.	2b-\	-gnus
*Xlig	*	*	*	*	*	*	*
=5-	=5-	=5-	=5-	=5-	=5-	=5-	=5-
!	!	!LO:TX:t=P:problem:inicjał A przed kluczem	!	!LO:TX:t=P:problem:kreska pseudotaktowa	!	!	!
1A	-gnus	1.F	A-	0c	-i	2.cc\	De-
*	*Xij	*	*	*	*	*	*
.	.	.	.	.	.	4b-\	.
2.F\	De-	.	.	.	.	2.a\	.
.	.	2F/	-gnus	.	.	.	.
!LO:TX:t=P:problem:kreska pseudotaktowa	!	!	!	!	!	!	!
4G\	.	.	.	.	.	4g/	.
=6-	=6-	=6-	=6-	=6-	=6-	=6-	=6-
*	*	*lig	*	*	*	*	*
4A\	.	1F	De-	0r	.	2.f/	.
4B-\	.	.	.	.	.	.	.
1c\	.	.	.	.	.	.	.
.	.	.	.	.	.	4e/	.
.	.	1G	.	.	.	1d	.
2B-\	.	.	.	.	.	.	.
*	*	*Xlig	*	*	*	*	*
=7-	=7-	=7-	=7-	=7-	=7-	=7-	=7-
!	!	!LO:TX:t=P:problem:kreska pseudotaktowa	!	!	!	!LO:TX:t=P:problem:kreska pseudotaktowa	!
2.c\	.	1A	-i	2r	.	1c	-i,
.	.	.	.	1c\	A-	.	.
4B-\	.	.	.	.	.	.	.
2.A\	.	2.F/	A-	.	.	2rf	.
!	!	!	!	!LO:TX:t=P:problem:kreska pseudotaktowa	!	!	!
.	.	.	.	2c\	-gn(us)	1f/	A-
4G\	.	4G/	.	.	.	.	.
=8-	=8-	=8-	=8-	=8-	=8-	=8-	=8-
*	*	*	*	*lig	*ij	*	*
2.F\	.	4A/	-gn(us)	1c	A-	.	.
.	.	4B-/	.	.	.	.	.
*	*	*2\right	*	*	*	*	*
.	.	2.c\	De-	.	.	2f/	-gnus
4E\	.	.	.	.	.	.	.
*	*	*	*	*	*	*lig	*
1D	-i	.	.	1d	.	1f	De-
.	.	4B-\	.	.	.	.	.
.	.	4B-\	.	.	.	.	.
.	.	4A\	.	.	.	.	.
*	*	*	*	*Xlig	*	*	*
=9-	=9-	=9-	=9-	=9-	=9-	=9-	=9-
!LO:TX:t=P:problem:kreska pseudotaktowa	!	!	!	!	!	!	!
1C	.	1c	.	1e,	-gnus	1g	.
*	*	*	*	*	*Xij	*Xlig	*
!LO:TX:t=P:problem:kreska pseudotaktowa	!	!LO:TX:t=P:problem:kreska pseudotaktowa	!	!	!	!	!
1r	.	0F	-i	2.f\	De-	1a,	-i
.	.	.	.	4e\	.	.	.
=10-	=10-	=10-	=10-	=10-	=10-	=10-	=10-
*	*	*	*	*	*	*	*ij
1.BB-	A-	.	.	2.d\	.	2.b-\	A-
!	!	!	!	!LO:TX:t=P:problem:kreska pseudotaktowa	!	!	!
.	.	.	.	4c/	.	4a\	.
.	.	0r	.	1.B-	.	2g/	-gnus
!	!	!	!	!	!	!LO:TX:t=P:problem:kreska pseudotaktowa	!
2BB-/	-gnus	.	.	.	.	2f/	.
=11-	=11-	=11-	=11-	=11-	=11-	=11-	=11-
*lig	*ij	*	*	*	*	*	*
1BB-	A-	.	.	.	.	2g/	.
.	.	.	.	2A/	.	1f/	De-
*	*	*	*	*lig	*	*	*
!	!	!LO:TX:t=P:problem:kreska pseudotaktowa	!	!	!	!	!
1C	.	1r	.	1G	.	.	.
.	.	.	.	.	.	2e/	.
*Xlig	*	*	*	*	*	*	*
=12-	=12-	=12-	=12-	=12-	=12-	=12-	=12-
!	!	!	!	!	!	!LO:TX:t=P:problem:kreska pseudotaktowa	!
1D	-gnus	2rF	.	1F	.	1f	-i
.	.	1F/	A-	.	.	.	.
*	*Xij	*	*	*Xlig	*	*	*Xij
!	!	!	!	!	!	!LO:LB:g=original	!
2.BB-/	De-	.	.	1B-	.	2.d/	A-
!	!	!LO:TX:t=P:problem:kreska pseudotaktowa	!	!	!	!	!
.	.	2F/	-gnus	.	.	.	.
!LO:TX:t=P:problem:kreska pseudotaktowa	!	!	!	!	!	!	!
4C/	.	.	.	.	.	4e/	.
=13-	=13-	=13-	=13-	=13-	=13-	=13-	=13-
*	*	*lig	*	*	*	*	*
4D\	.	1F	De-	2.A/	.	4f/	.
4E\	.	.	.	.	.	4g/	.
!	!	!	!	!	!	!LO:TX:t=P:problem:kreska pseudotaktowa	!
1F\	.	.	.	.	.	2a\	.
.	.	.	.	4B-/	.	.	.
!	!	!	!	!LO:TX:t=P:problem:kreska pseudotaktowa	!	!	!
.	.	1G	.	0.c	-i	1g	-gnus
2E\	.	.	.	.	.	.	.
*	*	*Xlig	*	*	*	*	*
=14-	=14-	=14-	=14-	=14-	=14-	=14-	=14-
!LO:TX:t=P:problem:kreska pseudotaktowa	!	!	!	!	!	!	!
1F	-i	1A	-i	.	.	2.cc\	De-
.	.	.	.	.	.	4b-\	.
!LO:TX:t=P:problem:kreska pseudotaktowa	!	!	!	!	!	!	!
1r	.	2.F/	a-	.	.	4a\	.
.	.	.	.	.	.	4g\	.
!	!	!	!	!	!	!LO:TX:t=P:problem:kreska pseudotaktowa	!
.	.	.	.	.	.	2a\	.
.	.	4G/	.	.	.	.	.
!LO:LB:g=original	!	!	!	!	!	!	!
=15-	=15-	=15-	=15-	=15-	=15-	=15-	=15-
1F	Qui	4A\	.	0r	.	2.f/	.
.	.	4B-\	.	.	.	.	.
.	.	1c\	.	.	.	.	.
.	.	.	.	.	.	4e/	-i
!	!	!	!	!	!	!LO:TX:t=P:problem:kreska pseudotaktowa	!
1G	tol-	.	.	.	.	1d	.
!	!	!LO:TX:t=P:problem:kreska pseudotaktowa	!	!	!	!	!
.	.	2B-\	-gn(us)	.	.	.	.
!	!	!LO:LB:g=original	!	!	!	!	!
=16-	=16-	=16-	=16-	=16-	=16-	=16-	=16-
2F\	-lis	2A/	De-	1c	qui	00r	.
!LO:TX:t=P:problem:kreska pseudotaktowa	!	!	!	!	!	!	!
2E\	pec-	2G/	.	.	.	.	.
4D\	-ca-	4F/	.	1d	tol-	.	.
4E\	.	4G/	.	.	.	.	.
4F\	.	4A/	.	.	.	.	.
4D\	.	4F/	.	.	.	.	.
=17-	=17-	=17-	=17-	=17-	=17-	=17-	=17-
4E\	.	1G	.	2c/	.	.	.
4F\	.	.	.	.	.	.	.
!	!	!	!	!LO:TX:t=P:problem:kreska pseudotaktowa	!	!	!
2.G\	.	.	.	2B-/	.	.	.
!	!	!	!	!LO:LB:g=original	!	!	!
.	.	2E/	.	1A	.	.	.
4F\	.	.	.	.	.	.	.
1F\	.	2F/	-i	.	.	.	.
=18-	=18-	=18-	=18-	=18-	=18-	=18-	=18-
!	!	!LO:TX:t=P:problem:kreska pseudotaktowa	!	!	!	!	!
.	.	1C	.	2G,/	-lis	1g	Qui
!LO:TX:t=P:problem:kreska pseudotaktowa	!	!	!	!	!	!	!
2E\	-ta	.	.	4c/	tol-	.	.
.	.	.	.	4B-/	.	.	.
1F	mun-	0r	.	4A/	.	1a	tol-
.	.	.	.	4F/	.	.	.
!	!	!	!	!LO:TX:t=P:problem:kreska pseudotaktowa:między nutą a kropką, ligatura	!	!	!
.	.	.	.	2.c\	.	.	.
=19-	=19-	=19-	=19-	=19-	=19-	=19-	=19-
2E\	.	.	.	.	.	2g\	-lis
.	.	.	.	8B-/L	.	.	.
.	.	.	.	8A/J	.	.	.
!	!	!	!	!	!	!LO:TX:t=P:problem:kreska pseudotaktowa	!
2D\	.	.	.	2B-/	.	2f/	pec-
!LO:TX:t=P:problem:kreska pseudotaktowa	!	!	!	!LO:TX:t=P:problem:kreska pseudotaktowa	!	!	!
1C	-di	2r	.	1c	-lis	4e/	-ca-
.	.	.	.	.	.	4f/	.
.	.	2c\	Qui	.	.	4g/	.
.	.	.	.	.	.	4e/	.
=20-	=20-	=20-	=20-	=20-	=20-	=20-	=20-
!	!	!	!	!LO:TX:t=P:problem:kreska pseudotaktowa	!	!	!
00r	.	1d	tol-	0r	.	4f/	.
.	.	.	.	.	.	4g/	.
.	.	.	.	.	.	1a\	.
.	.	2c\	-lis	.	.	.	.
!	!	!LO:TX:t=P:problem:kreska pseudotaktowa	!	!	!	!LO:TX:t=P:problem:kreska pseudotaktowa	!
.	.	2B-\	pec-	.	.	2g\	-ta
=21-	=21-	=21-	=21-	=21-	=21-	=21-	=21-
.	.	4A\	-ca-	1c	qui	2f/	pec-
.	.	4B-\	.	.	.	.	.
.	.	4c\	.	.	.	4e/	-ca-
.	.	4A\	.	.	.	4f/	.
.	.	2B-\	.	1d	tol-	4g/	.
.	.	.	.	.	.	4f/	.
.	.	2B-\	-ta	.	.	1f/	.
=22-	=22-	=22-	=22-	=22-	=22-	=22-	=22-
!LO:TX:t=P:problem:kreska pseudotaktowa	!	!	!	!	!	!	!
1r	.	2A/	mun-	2c,/	-lis	.	.
.	.	2G/	.	2B-/	pec-	2e/	.
!	!	!LO:TX:t=P:problem:kreska pseudotaktowa	!	!	!	!LO:TX:t=P:problem:kreska pseudotaktowa	!
2r	.	1F	-di	4A/	-ca-	1f	.
.	.	.	.	(4B-/	.	.	.
2F\	Qui	.	.	4c/)	.	.	.
!	!	!	!	!LO:TX:t=P:problem:kreska pseudotaktowa	!	!	!
.	.	.	.	4A/	.	.	.
=23-	=23-	=23-	=23-	=23-	=23-	=23-	=23-
!LO:TX:t=P:problem:kreska pseudotaktowa	!	!	!	!	!	!	!
1G	tol-	2r	.	2B-/	.	2.d/	.
.	.	2B-\	qui	2G,/	-ta	.	.
.	.	.	.	.	.	4e/	.
2F\	-lis	1c	tol-	2A/	mun-	2f/	.
2E\	pec-	.	.	2G/	.	1g\	.
=24-	=24-	=24-	=24-	=24-	=24-	=24-	=24-
!	!	!	!	!LO:TX:t=P:problem:kreska pseudotaktowa	!	!	!
4D\	-ca-	2B-\	-lis	1d	-di	.	.
4E\	.	.	.	.	.	.	.
!	!	!LO:TX:t=P:problem:kreska pseudotaktowa	!	!	!	!	!
4F\	.	2A\	pec-	.	.	2f,/	-ta
!LO:TX:t=P:problem:kreska pseudotaktowa	!	!	!	!	!	!	!
4D\	.	.	.	.	.	.	.
4E\	.	4G/	-ca-	0r	.	1g	mun-
4F\	.	4A/	.	.	.	.	.
2.G\	.	4B-/	.	.	.	.	.
.	.	4G/	.	.	.	.	.
=25-	=25-	=25-	=25-	=25-	=25-	=25-	=25-
!	!	!	!	!	!	!LO:TX:t=P:problem:kreska pseudotaktowa	!
.	.	1.A	.	.	.	1c	-di
4F\	.	.	.	.	.	.	.
1F\	.	.	.	.	.	.	.
!	!	!	!	!	!	!LO:LB:g=original	!
!	!	!	!	!	!	!LO:TX:t=P:problem:kreska pseudotaktowa	!
.	.	.	.	1c	Qui	1rdd	.
!LO:TX:t=P:problem:kreska pseudotaktowa	!	!	!	!	!	!	!
2E\	.	2G/	.	.	.	.	.
=26-	=26-	=26-	=26-	=26-	=26-	=26-	=26-
4D\	.	2B-\	-ta	1d	tol-	1f	Qui
4E\	.	.	.	.	.	.	.
!	!	!LO:TX:t=P:problem:kreska pseudotaktowa	!	!	!	!	!
!	!	!LO:SIC:v:t=custos G	!	!	!	!	!
4F\	.	2A\	.	.	.	.	.
4D\	.	.	.	.	.	.	.
!	!	!LO:LB:g=original	!	!	!	!	!
*	*	*lig	*	*	*	*	*
!	!	!	!	!	!	!LO:TX:t=P:problem:kreska pseudotaktowa	!
4E\	.	1G	pec-	2c\	-lis	1g	tol-
4F\	.	.	.	.	.	.	.
!LO:TX:t=P:problem:kreska pseudotaktowa	!	!	!	!LO:TX:t=P:problem:kreska pseudotaktowa	!	!	!
2G\	.	.	.	2B-/	pec-	.	.
=27-	=27-	=27-	=27-	=27-	=27-	=27-	=27-
2D/	.	1A	.	4A/	-ca-	2f/	-lis
.	.	.	.	(4B-/	.	.	.
2C/	.	.	.	4c/	.	2e/	pec-
.	.	.	.	4A/)	.	.	.
*	*	*Xlig	*	*	*	*	*
2D/	-ta	2F/	-ca-	4B-/	.	4d/	-ca-
.	.	.	.	4c/	.	4e/	.
!LO:TX:t=P:problem:kreska pseudotaktowa	!	!	!	!	!	!	!
2BB-/	.	2D/	.	2.d\	.	4f/	.
.	.	.	.	.	.	4d/	.
!LO:LB:g=original	!	!	!	!	!	!	!
=28-	=28-	=28-	=28-	=28-	=28-	=28-	=28-
*lig	*	*	*	*	*	*	*
1C	mun-	2G/	.	.	.	4e/	.
.	.	.	.	4c/	.	4f/	.
!	!	!LO:TX:t=P:problem:kreska pseudotaktowa	!	!	!	!LO:TX:t=P:problem:kreska pseudotaktowa:między nutą a kropką, ligatura	!
.	.	2E/	-ta	1c\	-ta	2.g/	.
1D	.	2.F/	mun-	.	.	.	.
.	.	.	.	.	.	4f/	.
.	.	.	.	2B-/	mun-	1f/	-ta
.	.	4G/	.	.	.	.	.
*Xlig	*	*	*	*	*	*	*
=29-	=29-	=29-	=29-	=29-	=29-	=29-	=29-
!LO:TX:t=P:problem:kreska pseudotaktowa	!	!	!	!	!	!	!
1C	-di	4A\	.	1c	.	.	.
.	.	4B-\	.	.	.	.	.
.	.	1c\	.	.	.	2e/	.
*	*	*	*	*	*	*lig	*
!	!	!	!	!LO:TX:t=P:problem:kreska pseudotaktowa	!	!	!
1rD	.	.	.	0G	-di	1d	mun-
.	.	2B-\	.	.	.	.	.
=30-	=30-	=30-	=30-	=30-	=30-	=30-	=30-
!	!	!LO:TX:t=P:problem:kreska pseudotaktowa	!	!	!	!	!
1C	mi-	1c,	-di	.	.	1e	.
*	*	*	*	*	*	*Xlig	*
!	!	!	!	!LO:LB:g=original	!	!LO:TX:t=P:problem:kreska pseudotaktowa	!
2D/	-ſe-	2r	.	2r	.	0f	-di
4BB-/	-re-	1d\	mi-	1B-/	mi-	.	.
!LO:TX:t=P:problem:kreska pseudotaktowa	!	!	!	!	!	!	!
4C/	.	.	.	.	.	.	.
=31-	=31-	=31-	=31-	=31-	=31-	=31-	=31-
4D\	.	.	.	.	.	.	.
4E\	.	.	.	.	.	.	.
1F\	.	2c\	-ſe-	2A/	-ſe-	.	.
.	.	2d\	-re-	1G	-re-	2r	.
2E\	-re	2.c\	.	.	.	2g\	pec-
=32-	=32-	=32-	=32-	=32-	=32-	=32-	=32-
1D	no-	.	.	2F,/	-re	2a\	-ca-
.	.	4A\	.	.	.	.	.
*	*	*	*	*	*ij	*	*
!	!	!LO:TX:t=P:problem:kreska pseudotaktowa	!	!	!	!	!
.	.	2B-,\	-re	1f\	mi-	4f/	.
!	!	!	!	!	!	!LO:TX:t=P:problem:kreska pseudotaktowa	!
.	.	.	.	.	.	4g/	.
!LO:TX:t=P:problem:kreska pseudotaktowa	!	!	!	!	!	!	!
1C	-bis	1c	no-	.	.	4a\	.
.	.	.	.	.	.	4b-\	.
!	!	!	!	!LO:TX:t=P:problem:kreska pseudotaktowa	!	!	!
.	.	.	.	2e\	-ſe-	1cc\	.
=33-	=33-	=33-	=33-	=33-	=33-	=33-	=33-
1r	.	2G,/	-bis	1d	-re-	.	.
.	.	2G/	mi-	.	.	2b-,\	-ta
2r	.	2A/	-ſe-	1c	-re	1cc	mun-
*	*	*	*	*	*Xij	*	*
1F\	mi-	4F/	.	.	.	.	.
.	.	4G/	.	.	.	.	.
=34-	=34-	=34-	=34-	=34-	=34-	=34-	=34-
!	!	!	!	!	!	!LO:TX:t=P:problem:kreska pseudotaktowa	!
.	.	4A\	.	2rA	.	1cc	-di
.	.	4B-\	.	.	.	.	.
!	!	!	!	!LO:TX:t=P:problem:kreska pseudotaktowa	!	!	!
2E\	-ſe-	1c\	-re	2G/	mi-	.	.
1D	-re-	.	.	2A/	-ſe-	2rf	.
.	.	2B-\	.	4F/	-re-	1f/	mi-
.	.	.	.	4G/	.	.	.
=35-	=35-	=35-	=35-	=35-	=35-	=35-	=35-
!LO:TX:t=P:problem:kreska pseudotaktowa	!	!	!	!	!	!	!
1C	-re	1c	no-	4A/	.	.	.
.	.	.	.	4B-/	.	.	.
!	!	!	!	!LO:TX:t=P:problem:kreska pseudotaktowa	!	!	!
.	.	.	.	[<2c\	.	2e/	-ſe-
!	!	!LO:TX:t=P:problem:kreska pseudotaktowa	!	!	!	!	!
2r	.	1G	-bis	2c]	.	1d	-re-
2G\	mi-	.	.	2B-/	-re	.	.
=36-	=36-	=36-	=36-	=36-	=36-	=36-	=36-
!	!	!	!	!	!	!LO:TX:t=P:problem:kreska pseudotaktowa	!
2A\	-ſe-	2r	.	2.c/	no-	1c	-re
1F\	-re-	2c\	mi-	.	.	.	.
.	.	.	.	4B-/	.	.	.
.	.	2d\	-ſe-	2A/	.	2r	.
!LO:TX:t=P:problem:kreska pseudotaktowa	!	!	!	!	!	!LO:TX:t=P:problem:kreska pseudotaktowa	!
2E\	-re	1c\	-re-	2G/	.	2g\	mi-
=37-	=37-	=37-	=37-	=37-	=37-	=37-	=37-
!	!	!	!	!LO:TX:t=P:problem:kreska pseudotaktowa	!	!	!
1D	no-	.	.	1F	-bis	2a\	-se-
!	!	!LO:TX:t=P:problem:kreska pseudotaktowa	!	!	!	!	!
.	.	2B-\	-re	.	.	4f/	.
!	!	!	!	!	!	!LO:TX:t=P:problem:kreska pseudotaktowa	!
.	.	.	.	.	.	4g/	.
!LO:TX:t=P:problem:kreska pseudotaktowa	!	!LO:LB:g=original	!	!	!	!LO:LB:g=original	!
1C	-bis	1c	no-	2r	.	4a\	.
.	.	.	.	.	.	4b-\	.
!	!	!	!	!LO:TX:t=P:problem:kreska pseudotaktowa	!	!	!
.	.	.	.	2c\	mi-	2.cc\	.
=38-	=38-	=38-	=38-	=38-	=38-	=38-	=38-
!	!	!LO:TX:t=P:problem:kreska pseudotaktowa	!	!	!	!	!
2r	.	1G	-bis.	2d\	-ſe-	.	.
.	.	.	.	.	.	4b-\	.
1G\	mi-	.	.	4B-/	-re-	1b-\	.
.	.	.	.	4c/	.	.	.
.	.	0r	.	4d\	.	.	.
.	.	.	.	4e\	.	.	.
2D/	-ſe-	.	.	1f\	.	4a\	-re
!	!	!	!	!	!	!LO:TX:t=P:problem:kreska pseudotaktowa	!
.	.	.	.	.	.	4g\	.
=39-	=39-	=39-	=39-	=39-	=39-	=39-	=39-
2F\	-re-	.	.	.	.	4a\	no-
.	.	.	.	.	.	4b-\	.
!	!	!	!	!LO:TX:t=P:problem:kreska pseudotaktowa	!	!	!
2C/	.	.	.	2e\	-re	1cc\	.
!LO:TX:t=P:problem:kreska pseudotaktowa	!	!	!	!LO:LB:g=original	!	!	!
1G	-re	2rG	.	1d	no-	.	.
!	!	!LO:TX:t=P:problem:kreska pseudotaktowa	!	!	!	!LO:TX:t=P:problem:kreska pseudotaktowa	!
.	.	2G/	mi-	.	.	2b-\	.
=40-	=40-	=40-	=40-	=40-	=40-	=40-	=40-
!LO:TX:t=P:problem:kreska pseudotaktowa	!	!	!	!	!	!	!
1r	.	2A\	-se-	2c,\	-bis	2.cc\	.
.	.	4F/	-re	1f\	mi-	.	.
.	.	4G/	.	.	.	4b-\	.
2rD	.	4A\	.	.	.	2a\	.
.	.	4B-\	.	.	.	.	.
!LO:TX:t=P:problem:kreska pseudotaktowa	!	!	!	!LO:TX:t=P:problem:kreska pseudotaktowa	!	!LO:TX:t=P:problem:kreska pseudotaktowa	!
2C/	mi-	2c\	.	2e\	-ſe-	2g\	.
=41-	=41-	=41-	=41-	=41-	=41-	=41-	=41-
2D/	-ſe-	2A\	.	1.d	-re-	2f,/	-bis
4BB-/	.	1B-\	.	.	.	4d/	mi-
!LO:TX:t=P:problem:kreska pseudotaktowa	!	!	!	!	!	!	!
4C/	.	.	.	.	.	4e/	-ſe-
!LO:LB:g=original	!	!	!	!	!	!	!
4D\	-re-	.	.	.	.	4f/	-re-
4E\	.	.	.	.	.	4g/	.
1F\	.	4A\	.	2c/	-re	1a\	.
.	.	4G\	.	.	.	.	.
=42-	=42-	=42-	=42-	=42-	=42-	=42-	=42-
.	.	2F/	.	2A/	no-	.	.
!	!	!	!	!	!	!LO:TX:t=P:problem:kreska pseudotaktowa:między nutą a kropką, ligatura	!
2E\	.	2G,/	re	1c\	.	2.g\	.
1D	-re	2A/	no-	.	.	.	.
.	.	.	.	.	.	4f/	.
!	!	!	!	!LO:TX:t=P:problem:kreska pseudotaktowa	!	!	!
.	.	2F/	.	2B-/	.	1f/	.
=43-	=43-	=43-	=43-	=43-	=43-	=43-	=43-
!	!	!LO:TX:t=P:problem:kreska pseudotaktowa	!	!LO:TX:t=P:problem:kreska pseudotaktowa	!	!	!
0C	no-	1G	-bis,	0.c	-bis	.	.
.	.	.	.	.	.	4e/	-re
.	.	.	.	.	.	4d/	.
.	.	2rG	.	.	.	1e	no-
.	.	2G/	mi-	.	.	.	.
=44-	=44-	=44-	=44-	=44-	=44-	=44-	=44-
!LO:TX:t=P:problem:kreska pseudotaktowa	!	!	!	!	!	!LO:TX:t=P:problem:kreska pseudotaktowa	!
1FF	-bis	2A/	-se-	.	.	0f	-bis
.	.	4F/	-re-	.	.	.	.
.	.	4G/	.	.	.	.	.
1F	mi-	4A\	.	2r	.	.	.
.	.	4B-\	.	.	.	.	.
.	.	4c\	.	2c\	mi-	.	.
!	!	!LO:TX:t=P:problem:kreska pseudotaktowa	!	!	!	!	!
.	.	4A\	.	.	.	.	.
=45-	=45-	=45-	=45-	=45-	=45-	=45-	=45-
2BB-/	-ſe-	4B-\	.	2d\	-ſe-	2rf	.
.	.	4c\	.	.	.	.	.
1BB-/	-re-	1d\	.	4B-/	-re-	1f/	mi-
.	.	.	.	4c/	.	.	.
.	.	.	.	4d\	.	.	.
.	.	.	.	4e\	.	.	.
2AA/	-re	2c\	-re	1f\	.	2f/	-ſe-
=46-	=46-	=46-	=46-	=46-	=46-	=46-	=46-
0BB-	no-	0B-	no-	.	.	2.d/	-re-
.	.	.	.	2f\	-re	.	.
.	.	.	.	.	.	4e,/	-re
.	.	.	.	1d	no-	2f/	no-
.	.	.	.	.	.	2g\	.
=47-	=47-	=47-	=47-	=47-	=47-	=47-	=47-
0FFl;	-bis.	0Al;	-bis.	0cl;	-bis.	0al;	-bis.
!	!	!LO:LB:g=original	!	!LO:PB:g=original	!	!LO:LB:g=original	!
=48||	=48||	=48||	=48||	=48||	=48||	=48||	=48||
*>B	*	*>B	*	*>B	*	*>B	*
*k[b-]	*	*k[b-]	*	*k[b-]	*	*k[b-]	*
*M2/1	*	*M2/1	*	*M2/1	*	*M2/1	*
*met(C|)	*	*met(C|)	*	*met(C|)	*	*met(C|)	*
1.C	2. A-	1.G	2. A-	1.c	2. A-	1.e	2. A-
.	.	.	.	.	.	.	.
2C/	-gnus	2G/	-gnus	2c\	-gnus	2e/	-gnus
=49-	=49-	=49-	=49-	=49-	=49-	=49-	=49-
1AA	De-	1A	De-	2c/	De-	2e/	De-
!	!	!	!	!LO:TX:t=P:problem:kreska pseudotaktowa	!	!LO:TX:t=P:problem:kreska pseudotaktowa	!
.	.	.	.	2c/	-i	2e/	-i
*	*	*	*	*	*	*col	*
2D,\	-i	2A,\	-i	1d	qui	1.f	qui
*	*	*	*	*	*	*Xcol	*
2D\	Qui	2A\	qui	.	.	.	.
=50-	=50-	=50-	=50-	=50-	=50-	=50-	=50-
1BB-	tol-	1B-	tol-	1d	tol-	.	.
.	.	.	.	.	.	2f/	tol-
!LO:TX:t=P:problem:kreska pseudotaktowa	!	!LO:TX:t=P:problem:kreska pseudotaktowa	!	!LO:TX:t=P:problem:kreska pseudotaktowa	!	!LO:TX:t=P:problem:kreska pseudotaktowa	!
1C	-lis	1G,	-lis	1c	.	1e,	-lis
=51-	=51-	=51-	=51-	=51-	=51-	=51-	=51-
1C	pec-	1G	pec-	1c	-lis	1e	pec-
1.F	-ca-	1.A	-ca-	1.c	pec-	1.f	-ca-
=52-	=52-	=52-	=52-	=52-	=52-	=52-	=52-
.	.	.	.	.	.	.	.
!LO:TX:t=P:problem:kreska pseudotaktowa	!	!	!	!LO:TX:t=P:problem:kreska pseudotaktowa	!	!	!
2F,\	-ta	2A,\	-ta	2c\	-ca-	2f/	-ta
(1D	mun-	(1A	mun-	1d	-ta	1f	mun-
=53-	=53-	=53-	=53-	=53-	=53-	=53-	=53-
0G)	.	0B-)	.	(1.d	mun-	0g	.
.	.	.	.	.	.	.	.
.	.	.	.	2e\)	.	.	.
=54-	=54-	=54-	=54-	=54-	=54-	=54-	=54-
!LO:TX:t=P:problem:kreska pseudotaktowa	!	!LO:TX:t=P:problem:kreska pseudotaktowa	!	!LO:TX:t=P:problem:kreska pseudotaktowa	!	!LO:TX:t=P:problem:kreska pseudotaktowa	!
!LO:SIC:v:t=custos F	!	!	!	!	!	!	!
1F	-di	1c,	-di	1f,	-di	1a,	-di
!LO:LB:g=original	!	!	!	!	!	!	!
1.F	mi-	1.c	mi-	1.f	mi-	1.a	mi-
=55-	=55-	=55-	=55-	=55-	=55-	=55-	=55-
.	.	.	.	.	.	.	.
2F\	-ſe-	2c\	-ſe-	2f\	-ſe-	2a\	-ſe-
1D	-re-	1.d	-re-	1f	-re-	1a	-re-
=56-	=56-	=56-	=56-	=56-	=56-	=56-	=56-
!LO:TX:t=P:problem:kreska pseudotaktowa	!	!	!	!LO:TX:t=P:problem:kreska pseudotaktowa	!	!LO:TX:t=P:problem:kreska pseudotaktowa	!
1AA,	-re	.	.	1e,	-re	1a	-re
.	.	2c\	-re	.	.	.	.
*	*	*	*	*	*	*lig	*
0BB-	no-	1.B-	no-	0d	no-	1g	no-
=57-	=57-	=57-	=57-	=57-	=57-	=57-	=57-
.	.	.	.	.	.	1f	.
.	.	2A/	.	.	.	.	.
*	*	*	*	*	*	*Xlig	*
!LO:TX:t=P:problem:kreska pseudotaktowa	!	!LO:TX:t=P:problem:kreska pseudotaktowa	!	!LO:TX:t=P:problem:kreska pseudotaktowa	!	!LO:TX:t=P:problem:kreska pseudotaktowa	!
1C,	-bis,	1G;	-bis,	1c;	-bis	1e	-bis,
=58-	=58-	=58-	=58-	=58-	=58-	=58-	=58-
!	!	!LO:TX:t=P:problem:kreska pseudotaktowa	!	!	!	!	!
1rA	.	1r	.	1rg	.	1ree	.
1.C	mi-	1.G	mi-	1.c	mi-	1.e	mi-
=59-	=59-	=59-	=59-	=59-	=59-	=59-	=59-
.	.	.	.	.	.	.	.
2BB-/	-ſe-	2G/	-se-	2c\	-ſe-	2e/	-ſe-
!	!	!	!	!	!	!LO:N:vis=1	!
2AA/	-re-	1A	-re-	2c/	-re-	2e/	-re-
!LO:TX:t=P:problem:kreska pseudotaktowa	!	!	!	!LO:TX:t=P:problem:kreska pseudotaktowa	!	!LO:TX:t=P:problem:kreska pseudotaktowa	!
!	!	!	!	!	!	!LO:N:vis=1	!
2AA/	-re	.	.	2c/	-re	2f/	-re
=60-	=60-	=60-	=60-	=60-	=60-	=60-	=60-
2.GG/	no-	1A	-re	0d	.	1g	no-
4AA/	.	.	.	.	.	.	.
1BB-	.	1.B-	no-	.	.	1.f	.
=61-	=61-	=61-	=61-	=61-	=61-	=61-	=61-
0C	.	.	.	0c	no-	.	.
.	.	2A\	.	.	.	4e/	.
.	.	.	.	.	.	4d/	.
.	.	1G	.	.	.	1e	.
=62-	=62-	=62-	=62-	=62-	=62-	=62-	=62-
!LO:TX:b:B:t=Agn(us) 3tium ut Supra	!	!LO:TX:b:B:t=Agnus 3tium ut Supra	!	!LO:TX:b:B:t=Agnus 3tium ut Supra	!	!LO:TX:b:B:t=Agnus 3tium ut Supra	!
0Fl;	-bis.	0Al;	-bis.	0cl;	-bis.	0fl;	-bis.
==	==	==	==	==	==	==	==
*-	*-	*-	*-	*-	*-	*-	*-
!!!system-decoration: [s1,s2,s3,s4]
!!!RDF**kern: < = below
!!!RDF**kern: l = terminal long
!!!ENC: Mateusz Solarz
!!!END: 2021-03-03
!!!ENC: Marta Lawrence
!!!END: 2021-03-18
